images/icons/cash-app-pound.svg

<svg width="24" height="24" viewBox="0 0 24 24" fill="none" xmlns="http://www.w3.org/2000/svg">
<g clip-path="url(#clip0_1432_8582)">
<mask id="mask0_1432_8582" style="mask-type:luminance" maskUnits="userSpaceOnUse" x="0" y="0" width="24" height="24">
<path d="M24 0H0V24H24V0Z" fill="white"/>
</mask>
<g mask="url(#mask0_1432_8582)">
<g clip-path="url(#clip1_1432_8582)">
<path d="M15.1611 4.69304C16.5486 4.69304 17.8236 5.48054 18.4611 6.68054C18.6861 7.01804 19.1361 7.09304 19.4736 6.86804C19.5111 6.83054 19.5486 6.83054 19.5486 6.79304L21.9486 4.46804C22.2111 4.20554 22.2111 3.83054 22.0236 3.56804C20.4111 1.28054 17.7861 -0.031957 15.0111 0.005543C10.3611 0.005543 6.38611 2.96804 6.38611 7.88054C6.38611 8.55554 6.46111 9.23054 6.61111 9.90554H5.29861C4.96111 9.90554 4.66111 10.1305 4.58611 10.4305L4.02361 13.018C3.94861 13.393 4.17361 13.768 4.54861 13.843C4.58611 13.843 4.62361 13.843 4.66111 13.843H7.39861L7.51111 14.3305C7.58611 14.6305 7.62361 14.9305 7.62361 15.2305C7.62361 17.2555 5.48611 19.243 2.86111 20.068C2.59861 20.143 2.41111 20.3305 2.37361 20.593L1.81111 23.143C1.73611 23.5555 1.99861 23.893 2.41111 23.968C2.44861 23.968 2.48611 23.968 2.52361 23.968H19.0236C19.3611 23.968 19.6236 23.743 19.6986 23.4055L20.4111 20.1805C20.4861 19.8055 20.2611 19.4305 19.8861 19.3555C19.8486 19.3555 19.7736 19.3555 19.7361 19.318H11.0361C12.0861 18.3805 12.6861 15.8305 12.4986 13.8805H16.8486C17.1861 13.8805 17.4861 13.6555 17.5611 13.318L18.1236 10.768C18.1986 10.393 17.9361 10.018 17.5611 9.94304C17.5236 9.94304 17.4486 9.94304 17.4111 9.94304H11.7486C11.7111 9.45554 11.6736 9.00554 11.6736 8.59304C11.6736 5.93054 13.2861 4.69304 15.1611 4.69304Z" fill="white"/>
</g>
</g>
</g>
<defs>
<clipPath id="clip0_1432_8582">
<rect width="24" height="24" fill="white"/>
</clipPath>
<clipPath id="clip1_1432_8582">
<rect width="20.325" height="24" fill="white" transform="translate(1.84863 0.0055542)"/>
</clipPath>
</defs>
</svg>

<svg fill="none" height="24" viewBox="0 0 24 24" width="24" xmlns="http://www.w3.org/2000/svg" xmlns:xlink="http://www.w3.org/1999/xlink"><clipPath id="a"><path d="m0 0h24v24h-24z"/></clipPath><clipPath id="b"><path d="m1.84863.005554h20.325v24h-20.325z"/></clipPath><mask id="c" height="24" maskUnits="userSpaceOnUse" width="24" x="0" y="0"><path d="m24 0h-24v24h24z" fill="#fff"/></mask><g clip-path="url(#a)"><g mask="url(#c)"><g clip-path="url(#b)"><path d="m15.1611 4.69304c1.3875 0 2.6625.7875 3.3 1.9875.225.3375.675.4125 1.0125.1875.0375-.0375.075-.0375.075-.075l2.4-2.325c.2625-.2625.2625-.6375.075-.9-1.6125-2.2875-4.2375-3.599997-7.0125-3.562497-4.65 0-8.62499 2.962497-8.62499 7.874997 0 .675.075 1.35.225 2.025h-1.3125c-.3375 0-.6375.22496-.7125.52496l-.5625 2.5875c-.075.375.15.75.525.825h.1125 2.7375l.1125.4875c.075.3.1125.6.1125.9 0 2.025-2.1375 4.0125-4.7625 4.8375-.2625.075-.45.2625-.4875.525l-.5625 2.55c-.075.4125.1875.75.6.825h.1125 16.49999c.3375 0 .6-.225.675-.5625l.7125-3.225c.075-.375-.15-.75-.525-.825-.0375 0-.1125 0-.15-.0375h-8.7c1.05-.9375 1.65-3.4875 1.4625-5.4375h4.35c.3375 0 .6375-.225.7125-.5625l.5625-2.55c.075-.375-.1875-.75-.5625-.82496-.0375 0-.1125 0-.15 0h-5.6625c-.0375-.4875-.075-.9375-.075-1.35 0-2.6625 1.6125-3.9 3.4875-3.9z" fill="#fff"/></g></g></g></svg>
